X: 15477
T: Glencolmcille
R: reel
M: 4/4
K: Dmajor
D3E FEDF|Adcd BAFA|BE E2 dE E2|GFED cEA2|
D3E FEDF|Adcd BAFA|B2 ec dBAG|1 FG EF D2AB:|2 FG EF D3e||
|:fded cAA2|fdef geag|fded cAA2|B/c/dAF D3e|
fded cAA2|fdef g2fg|afge fded|1 cABc d3e:|2 cABc dBAF||

